assets/img/succes.svg

<svg width="283" height="283" viewBox="0 0 283 283" fill="none" xmlns="http://www.w3.org/2000/svg"><g filter="url(#filter0_d)"><circle cx="141.5" cy="141.5" r="93.5" fill="#AAEB46"/></g><path fill-rule="evenodd" clip-rule="evenodd" d="M145.969 114.608L128.4 82l-81.988 9.998 23.733 34.146 75.824-11.536z" fill="#265DEB"/><path fill-rule="evenodd" clip-rule="evenodd" d="M46.412 91.998l-.77 1.538 24.503 32.608 1.85-.308-25.583-33.838z" fill="url(#paint0_radial)"/><path fill-rule="evenodd" clip-rule="evenodd" d="M70.145 126.144l6.935 57.986s26.508 13.689 63.495 26.917v-69.676l-70.43-15.227z" fill="#265DEB"/><path fill-rule="evenodd" clip-rule="evenodd" d="M140.575 141.371l73.513-17.996-8.631 61.37s-16.49 14.151-64.882 26.609v-69.983z" fill="#0F2D79"/><path fill-rule="evenodd" clip-rule="evenodd" d="M70.145 126.144l75.824-11.536 68.119 8.767-73.513 17.996-70.43-15.227z" fill="url(#paint1_radial)"/><path fill-rule="evenodd" clip-rule="evenodd" d="M77.388 125.836l63.187 13.689 63.341-16.15-57.022-7.998-69.506 10.459z" fill="url(#paint2_radial)"/><path fill-rule="evenodd" clip-rule="evenodd" d="M140.575 141.371l-32.518-22.303S54.887 114.147 31 105.226l39.145 20.918 70.43 15.227z" fill="url(#paint3_linear)"/><path fill-rule="evenodd" clip-rule="evenodd" d="M31 105.226l.616-1.538s27.587 10.766 77.366 12.612l-.925 2.768S59.819 115.223 31 105.226z" fill="url(#paint4_radial)"/><path fill-rule="evenodd" clip-rule="evenodd" d="M108.982 116.454l31.593 23.071v1.846l-32.518-22.303.925-2.614z" fill="#0C3BB3"/><path fill-rule="evenodd" clip-rule="evenodd" d="M145.969 114.608s5.24-10.305 13.716-28.609h78.698l-24.35 37.376-68.064-8.767z" fill="url(#paint5_radial)"/><path fill-rule="evenodd" clip-rule="evenodd" d="M238.383 85.991l1.288 2.162-26.046 37.991.408-2.777 24.35-37.376z" fill="url(#paint6_linear)"/><path fill-rule="evenodd" clip-rule="evenodd" d="M214.088 123.375l-73.512 17.996 24.196 10.613s35.446-.769 48.546-5.845C226.417 141.063 252 126.451 252 126.451l-37.912-3.076z" fill="#265DEB"/><path fill-rule="evenodd" clip-rule="evenodd" d="M252 126.451l-.925 2.461s-19.88 12.459-38.528 19.073c-18.956 6.614-47.93 6.921-47.93 6.921v-2.768s32.255-.721 48.283-6.104c10.788-3.692 39.1-19.583 39.1-19.583z" fill="url(#paint7_radial)"/><path fill-rule="evenodd" clip-rule="evenodd" d="M140.575 140.448v1.846l24.196 12.459v-2.923l-24.196-11.382z" fill="#0C3BB3"/><path opacity=".75" fill-rule="evenodd" clip-rule="evenodd" d="M106 193.762V173l30.919 9.715-1.336 20.762L106 193.762z" fill="#F5F6FA"/><path d="M133.483 201.572l-25.193-8.382v-18.095l26.338 8.191-1.145 18.286zm-24.239-9.143l23.476 7.809.954-16.191-24.43-7.619v16.001z" fill="#0F2D79" opacity=".5"/><path fill-rule="evenodd" clip-rule="evenodd" d="M112.68 179.477l16.223 5.142v2.667l-16.223-5.143v-2.666zm0 5.142l16.223 5.143v1.334l-16.223-4.953v-1.524z" fill="#0F2D79"/><path opacity=".36" d="M31 105.225s36.525 12.767 77.057 13.843l31.439 21.534 1.079.769v27.378l-69.197-31.685-1.233-10.767L31 105.225z" fill="#0F2D79"/><path opacity=".58" d="M146.894 115.377v22.303l57.022-14.305-57.022-7.998z" fill="#0F2D79"/><mask id="mask0" style="mask-type:alpha" maskUnits="userSpaceOnUse" x="109" y="63" width="77" height="77"><path d="M140.934 139.8L109.2 116.567V63.3h75.933v64.6l-44.199 11.9z" fill="#C4C4C4"/></mask><g mask="url(#mask0)"><path fill-rule="evenodd" clip-rule="evenodd" d="M150.567 65v59.945l13.016-13.073 8.031 7.997-22.698 22.796a5.666 5.666 0 01-8.031 0l-22.698-22.796 8.031-7.997 13.016 13.073V65.001h11.333z" fill="url(#paint8_linear)" stroke="url(#paint9_linear)" stroke-width=".25" stroke-linecap="square" stroke-linejoin="round"/></g><defs><radialGradient id="paint0_radial" cx="0" cy="0" r="1" gradientUnits="userSpaceOnUse" gradientTransform="matrix(-8.5 -19.2666 19.22854 -8.4832 59.334 114.3)"><stop stop-color="#AAEB46"/><stop offset=".978" stop-color="#265DEB"/></radialGradient><radialGradient id="paint1_radial" cx="0" cy="0" r="1" gradientUnits="userSpaceOnUse" gradientTransform="matrix(75.36666 -2.83333 2.82772 75.21757 127.9 126.2)"><stop stop-color="#0F2D79"/><stop offset="1" stop-color="#265DEB"/></radialGradient><radialGradient id="paint2_radial" cx="0" cy="0" r="1" gradientUnits="userSpaceOnUse" gradientTransform="matrix(2.2669 -26.6333 63.08131 5.36916 144.333 141.5)"><stop offset=".022" stop-color="#265DEB"/><stop offset="1" stop-color="#0F2D79"/></radialGradient><radialGradient id="paint4_radial" cx="0" cy="0" r="1" gradientUnits="userSpaceOnUse" gradientTransform="matrix(22.7934 0 0 22.7483 70.198 104.641)"><stop stop-color="#265DEB"/><stop offset=".026" stop-color="#5C87F6"/><stop offset="1" stop-color="#265DEB"/></radialGradient><radialGradient id="paint5_radial" cx="0" cy="0" r="1" gradientUnits="userSpaceOnUse" gradientTransform="matrix(-48.16672 22.66656 -22.62173 -48.07144 238.4 86.534)"><stop stop-color="#AAEB46"/><stop offset=".978" stop-color="#265DEB"/></radialGradient><radialGradient id="paint7_radial" cx="0" cy="0" r="1" gradientUnits="userSpaceOnUse" gradientTransform="rotate(-121.849 153.758 17.886) scale(44.0289 43.9418)"><stop offset=".022" stop-color="#AAEB46"/><stop offset="1" stop-color="#093CBF"/></radialGradient><linearGradient id="paint3_linear" x1="87.667" y1="116.001" x2="82" y2="140.934" gradientUnits="userSpaceOnUse"><stop stop-color="#AAEB46"/><stop offset="1" stop-color="#0F2D79"/></linearGradient><linearGradient id="paint6_linear" x1="226.648" y1="85.991" x2="226.648" y2="126.144" gradientUnits="userSpaceOnUse"><stop stop-color="#0F2D79"/><stop offset="1" stop-color="#AAEB46"/></linearGradient><linearGradient id="paint8_linear" x1="144.334" y1="100.134" x2="144.338" y2="143.767" gradientUnits="userSpaceOnUse"><stop stop-color="#F5F6FA"/><stop offset=".792" stop-color="#8D9DC5"/></linearGradient><linearGradient id="paint9_linear" x1="145.467" y1="130.167" x2="145.467" y2="68.967" gradientUnits="userSpaceOnUse"><stop stop-color="#fff"/><stop offset="1" stop-color="#E5E9F3"/></linearGradient><filter id="filter0_d" x="0" y="0" width="283" height="283" filterUnits="userSpaceOnUse" color-interpolation-filters="sRGB"><feFlood flood-opacity="0" result="BackgroundImageFix"/><feColorMatrix in="SourceAlpha" values="0 0 0 0 0 0 0 0 0 0 0 0 0 0 0 0 0 0 127 0" result="hardAlpha"/><feOffset/><feGaussianBlur stdDeviation="24"/><feColorMatrix values="0 0 0 0 0.666667 0 0 0 0 0.921569 0 0 0 0 0.27451 0 0 0 1 0"/><feBlend in2="BackgroundImageFix" result="effect1_dropShadow"/><feBlend in="SourceGraphic" in2="effect1_dropShadow" result="shape"/></filter></defs></svg>

<svg width="283" height="283" viewBox="0 0 283 283" fill="none" xmlns="http://www.w3.org/2000/svg">
<g filter="url(#filter0_d)">
<circle cx="141.5" cy="141.5" r="93.5" fill="#AAEB46"/>
</g>
<path fill-rule="evenodd" clip-rule="evenodd" d="M145.969 114.608L128.4 82.0002L46.4116 91.9979L70.1452 126.144L145.969 114.608Z" fill="#265DEB"/>
<path fill-rule="evenodd" clip-rule="evenodd" d="M46.4117 91.9978L45.6411 93.5359L70.1453 126.144L71.9947 125.836L46.4117 91.9978Z" fill="url(#paint0_radial)"/>
<path fill-rule="evenodd" clip-rule="evenodd" d="M70.145 126.144L77.0802 184.13C77.0802 184.13 103.588 197.819 140.575 211.047V141.371L70.145 126.144Z" fill="#265DEB"/>
<path fill-rule="evenodd" clip-rule="evenodd" d="M140.575 141.371L214.088 123.375L205.457 184.745C205.457 184.745 188.967 198.896 140.575 211.354V141.371Z" fill="#0F2D79"/>
<path fill-rule="evenodd" clip-rule="evenodd" d="M70.145 126.144L145.969 114.608L214.088 123.375L140.575 141.371L70.145 126.144Z" fill="url(#paint1_radial)"/>
<path fill-rule="evenodd" clip-rule="evenodd" d="M77.3882 125.836L140.575 139.525L203.916 123.375L146.894 115.377L77.3882 125.836Z" fill="url(#paint2_radial)"/>
<path fill-rule="evenodd" clip-rule="evenodd" d="M140.575 141.371L108.057 119.068C108.057 119.068 54.8877 114.147 31 105.226L70.145 126.144L140.575 141.371Z" fill="url(#paint3_linear)"/>
<path fill-rule="evenodd" clip-rule="evenodd" d="M31 105.226L31.6165 103.688C31.6165 103.688 59.2029 114.454 108.982 116.3L108.057 119.068C108.057 119.068 59.8194 115.223 31 105.226Z" fill="url(#paint4_radial)"/>
<path fill-rule="evenodd" clip-rule="evenodd" d="M108.982 116.454L140.575 139.525V141.371L108.057 119.068L108.982 116.454Z" fill="#0C3BB3"/>
<path fill-rule="evenodd" clip-rule="evenodd" d="M145.969 114.608C145.969 114.608 151.209 104.303 159.685 85.9995H238.383L214.033 123.375L145.969 114.608Z" fill="url(#paint5_radial)"/>
<path fill-rule="evenodd" clip-rule="evenodd" d="M238.383 85.9912L239.671 88.1526L213.625 126.144L214.033 123.367L238.383 85.9912Z" fill="url(#paint6_linear)"/>
<path fill-rule="evenodd" clip-rule="evenodd" d="M214.088 123.375L140.576 141.371L164.772 151.984C164.772 151.984 200.218 151.215 213.318 146.139C226.417 141.063 252 126.451 252 126.451L214.088 123.375Z" fill="#265DEB"/>
<path fill-rule="evenodd" clip-rule="evenodd" d="M252 126.451L251.075 128.912C251.075 128.912 231.195 141.371 212.547 147.985C193.591 154.599 164.617 154.906 164.617 154.906V152.138C164.617 152.138 196.872 151.417 212.9 146.034C223.688 142.342 252 126.451 252 126.451Z" fill="url(#paint7_radial)"/>
<path fill-rule="evenodd" clip-rule="evenodd" d="M140.575 140.448V142.294L164.771 154.753V151.83L140.575 140.448Z" fill="#0C3BB3"/>
<path opacity="0.75" fill-rule="evenodd" clip-rule="evenodd" d="M106 193.762V173L136.919 182.715L135.583 203.477L106 193.762Z" fill="#F5F6FA"/>
<g opacity="0.5">
<path d="M133.483 201.572L108.29 193.19V175.095L134.628 183.286L133.483 201.572ZM109.244 192.429L132.72 200.238L133.674 184.047L109.244 176.428V192.429Z" fill="#0F2D79"/>
</g>
<path fill-rule="evenodd" clip-rule="evenodd" d="M112.68 179.477L128.903 184.619V187.286L112.68 182.143V179.477Z" fill="#0F2D79"/>
<path fill-rule="evenodd" clip-rule="evenodd" d="M112.68 184.619L128.903 189.762V191.096L112.68 186.143V184.619Z" fill="#0F2D79"/>
<path opacity="0.36" d="M31 105.225C31 105.225 67.5251 117.992 108.057 119.068L139.496 140.602L140.575 141.371V142.447V168.749L71.3779 137.064L70.145 126.297L31 105.225Z" fill="#0F2D79"/>
<path opacity="0.58" d="M146.894 115.377V137.68L203.916 123.375L146.894 115.377Z" fill="#0F2D79"/>
<mask id="mask0" style="mask-type:alpha" maskUnits="userSpaceOnUse" x="109" y="63" width="77" height="77">
<path d="M140.934 139.8L109.2 116.567V63.3003H185.133V127.9L140.934 139.8Z" fill="#C4C4C4"/>
</mask>
<g mask="url(#mask0)">
<path fill-rule="evenodd" clip-rule="evenodd" d="M150.567 65.0005V124.945L163.583 111.872L171.614 119.869L148.916 142.665C147.853 143.733 146.408 144.334 144.9 144.334C143.393 144.334 141.948 143.733 140.885 142.665L118.187 119.869L126.218 111.872L139.234 124.945V65.0005H150.567Z" fill="url(#paint8_linear)" stroke="url(#paint9_linear)" stroke-width="0.25" stroke-linecap="square" stroke-linejoin="round"/>
</g>
<defs>
<filter id="filter0_d" x="0" y="0.000244141" width="283" height="283" filterUnits="userSpaceOnUse" color-interpolation-filters="sRGB">
<feFlood flood-opacity="0" result="BackgroundImageFix"/>
<feColorMatrix in="SourceAlpha" type="matrix" values="0 0 0 0 0 0 0 0 0 0 0 0 0 0 0 0 0 0 127 0" result="hardAlpha"/>
<feOffset/>
<feGaussianBlur stdDeviation="24"/>
<feColorMatrix type="matrix" values="0 0 0 0 0.666667 0 0 0 0 0.921569 0 0 0 0 0.27451 0 0 0 1 0"/>
<feBlend mode="normal" in2="BackgroundImageFix" result="effect1_dropShadow"/>
<feBlend mode="normal" in="SourceGraphic" in2="effect1_dropShadow" result="shape"/>
</filter>
<radialGradient id="paint0_radial" cx="0" cy="0" r="1" gradientUnits="userSpaceOnUse" gradientTransform="translate(59.3335 114.3) rotate(-113.806) scale(21.0583 21.0167)">
<stop stop-color="#AAEB46"/>
<stop offset="0.9777" stop-color="#265DEB"/>
</radialGradient>
<radialGradient id="paint1_radial" cx="0" cy="0" r="1" gradientUnits="userSpaceOnUse" gradientTransform="translate(127.9 126.2) rotate(-2.15296) scale(75.4199 75.2707)">
<stop stop-color="#0F2D79"/>
<stop offset="1" stop-color="#265DEB"/>
</radialGradient>
<radialGradient id="paint2_radial" cx="0" cy="0" r="1" gradientUnits="userSpaceOnUse" gradientTransform="translate(144.333 141.5) rotate(-85.1355) scale(26.7296 63.3094)">
<stop offset="0.0223464" stop-color="#265DEB"/>
<stop offset="1" stop-color="#0F2D79"/>
</radialGradient>
<linearGradient id="paint3_linear" x1="87.6666" y1="116.001" x2="82" y2="140.934" gradientUnits="userSpaceOnUse">
<stop stop-color="#AAEB46"/>
<stop offset="1" stop-color="#0F2D79"/>
</linearGradient>
<radialGradient id="paint4_radial" cx="0" cy="0" r="1" gradientUnits="userSpaceOnUse" gradientTransform="translate(70.1985 104.641) scale(22.7934 22.7483)">
<stop stop-color="#265DEB"/>
<stop offset="0.0260417" stop-color="#5C87F6"/>
<stop offset="1" stop-color="#265DEB"/>
</radialGradient>
<radialGradient id="paint5_radial" cx="0" cy="0" r="1" gradientUnits="userSpaceOnUse" gradientTransform="translate(238.4 86.5335) rotate(154.799) scale(53.2335 53.1282)">
<stop stop-color="#AAEB46"/>
<stop offset="0.9777" stop-color="#265DEB"/>
</radialGradient>
<linearGradient id="paint6_linear" x1="226.648" y1="85.9912" x2="226.648" y2="126.144" gradientUnits="userSpaceOnUse">
<stop stop-color="#0F2D79"/>
<stop offset="1" stop-color="#AAEB46"/>
</linearGradient>
<radialGradient id="paint7_radial" cx="0" cy="0" r="1" gradientUnits="userSpaceOnUse" gradientTransform="translate(219.7 157.933) rotate(-121.849) scale(44.0289 43.9418)">
<stop offset="0.0223464" stop-color="#AAEB46"/>
<stop offset="1" stop-color="#093CBF"/>
</radialGradient>
<linearGradient id="paint8_linear" x1="144.334" y1="100.134" x2="144.338" y2="143.767" gradientUnits="userSpaceOnUse">
<stop stop-color="#F5F6FA"/>
<stop offset="0.791667" stop-color="#8D9DC5"/>
</linearGradient>
<linearGradient id="paint9_linear" x1="145.467" y1="130.167" x2="145.467" y2="68.9672" gradientUnits="userSpaceOnUse">
<stop stop-color="white"/>
<stop offset="1" stop-color="#E5E9F3"/>
</linearGradient>
</defs>
</svg>
